src/icons/ios-personadd.svg

<svg xmlns="http://www.w3.org/2000/svg" width="512" height="512" viewBox="0 0 512 512">
    <path d="M426 140h-26.6v-26.6h-14.9V140H358v14.9h26.6v26.5h14.9v-26.6H426V140zm-56 224c-13.7-4.9-33.4-6.6-45.9-9.3-7.2-1.6-17.7-5.6-21.2-9.8-3.5-4.2-1.4-43.5-1.4-43.5s6.5-10.2 10-19.1c3.5-8.9 7.3-33.4 7.3-33.4s7.2 0 9.8-12.6c2.8-13.8 7-19.5 6.5-29.9-.5-9.6-5.5-10.1-6.1-10.1-.6 0 5.2-14.5 5.9-45.1.9-36.1-26.8-71.8-78.9-71.8-52.1 0-79.7 35.6-78.9 71.8.6 30.5 6 45.1 6 45.1-.5 0-5.5.5-6.1 10.1-.5 10.3 3.8 15.8 6.5 29.6 2.6 12.6 9.8 12.8 9.8 12.8s3.8 24.5 7.3 33.5 10 19.1 10 19.1 2.1 39.2-1.4 43.5c-3.5 4.2-14 8.2-21.2 9.8-12.6 2.8-32.2 4.6-45.9 9.5-13.7 4.9-56 21.4-56 55.4h340c-.1-34.2-42.4-50.7-56.1-55.6z"/>
</svg>

<?xml version="1.0" encoding="UTF-8"?>
<svg width="512px" height="512px" viewBox="0 0 512 512" version="1.1" xmlns="http://www.w3.org/2000/svg" xmlns:xlink="http://www.w3.org/1999/xlink">
    <!-- Generator: Sketch 62 (91390) - https://sketch.com -->
    <title>ios-personadd</title>
    <desc>Created with Sketch.</desc>
    <g id="ios-personadd" stroke="none" stroke-width="1" fill="none" fill-rule="evenodd">
        <path d="M426,140 L399.4,140 L399.4,113.4 L384.5,113.4 L384.5,140 L358,140 L358,154.9 L384.6,154.9 L384.6,181.4 L399.5,181.4 L399.5,154.8 L426,154.8 L426,140 Z M370,364 C356.3,359.1 336.6,357.4 324.1,354.7 C316.9,353.1 306.4,349.1 302.9,344.9 C299.4,340.7 301.5,301.4 301.5,301.4 C301.5,301.4 308,291.2 311.5,282.3 C315,273.4 318.8,248.9 318.8,248.9 C318.8,248.9 326,248.9 328.6,236.3 C331.4,222.5 335.6,216.8 335.1,206.4 C334.6,196.8 329.6,196.3 329,196.3 C328.4,196.3 334.2,181.8 334.9,151.2 C335.8,115.1 308.1,79.4 256,79.4 C203.9,79.4 176.3,115 177.1,151.2 C177.7,181.7 183.1,196.3 183.1,196.3 C182.6,196.3 177.6,196.8 177,206.4 C176.5,216.7 180.8,222.2 183.5,236 C186.1,248.6 193.3,248.8 193.3,248.8 C193.3,248.8 197.1,273.3 200.6,282.3 C204.1,291.3 210.6,301.4 210.6,301.4 C210.6,301.4 212.7,340.6 209.2,344.9 C205.7,349.1 195.2,353.1 188,354.7 C175.4,357.5 155.8,359.3 142.1,364.2 C128.4,369.1 86.1,385.6 86.1,419.6 L426.1,419.6 C426,385.4 383.7,368.9 370,364 Z" id="Shape" fill="#000000" fill-rule="nonzero"></path>
    </g>
</svg>
